melody-of-light/img/icons/icomoon/catalog2.svg

<svg width="24" height="24" viewBox="0 0 24 24" fill="none" xmlns="http://www.w3.org/2000/svg">
<path fill-rule="evenodd" clip-rule="evenodd" d="M4.28557 4.28582V9.10725H9.107V4.28582H4.28557ZM3.74986 2.57153C3.09895 2.57153 2.57129 3.0992 2.57129 3.75011V9.64296C2.57129 10.2939 3.09895 10.8215 3.74986 10.8215H9.64272C10.2936 10.8215 10.8213 10.2939 10.8213 9.64296V3.7501C10.8213 3.0992 10.2936 2.57153 9.64272 2.57153H3.74986Z" fill="#93939F"/>
<path fill-rule="evenodd" clip-rule="evenodd" d="M4.28557 14.8928V19.7142H9.107V14.8928H4.28557ZM3.74986 13.1785C3.09895 13.1785 2.57129 13.7061 2.57129 14.357V20.2499C2.57129 20.9008 3.09895 21.4285 3.74986 21.4285H9.64272C10.2936 21.4285 10.8213 20.9008 10.8213 20.2499V14.357C10.8213 13.7061 10.2936 13.1785 9.64272 13.1785H3.74986Z" fill="#93939F"/>
<path fill-rule="evenodd" clip-rule="evenodd" d="M14.893 4.28582V9.10725H19.7144V4.28582H14.893ZM14.3573 2.57153C13.7064 2.57153 13.1787 3.0992 13.1787 3.75011V9.64296C13.1787 10.2939 13.7064 10.8215 14.3573 10.8215H20.2501C20.901 10.8215 21.4287 10.2939 21.4287 9.64296V3.7501C21.4287 3.0992 20.901 2.57153 20.2501 2.57153H14.3573Z" fill="#93939F"/>
<path fill-rule="evenodd" clip-rule="evenodd" d="M14.893 14.8928V19.7142H19.7144V14.8928H14.893ZM14.3573 13.1785C13.7064 13.1785 13.1787 13.7061 13.1787 14.357V20.2499C13.1787 20.9008 13.7064 21.4285 14.3573 21.4285H20.2501C20.901 21.4285 21.4287 20.9008 21.4287 20.2499V14.357C21.4287 13.7061 20.901 13.1785 20.2501 13.1785H14.3573Z" fill="#93939F"/>
</svg>

<svg width="24" height="24" fill="none" xmlns="http://www.w3.org/2000/svg"><path fill-rule="evenodd" clip-rule="evenodd" d="M4.286 4.286v4.821h4.821V4.286H4.286zM3.75 2.572c-.651 0-1.179.527-1.179 1.178v5.893c0 .65.528 1.178 1.179 1.178h5.893c.65 0 1.178-.527 1.178-1.178V3.75c0-.65-.527-1.178-1.178-1.178H3.75zm.536 12.321v4.821h4.821v-4.821H4.286zm-.536-1.715a1.18 1.18 0 00-1.179 1.179v5.893c0 .65.528 1.178 1.179 1.178h5.893c.65 0 1.178-.527 1.178-1.178v-5.893c0-.65-.527-1.178-1.178-1.178H3.75zm11.143-8.892v4.821h4.821V4.286h-4.821zm-.536-1.714c-.65 0-1.178.527-1.178 1.178v5.893c0 .65.527 1.178 1.178 1.178h5.893c.651 0 1.179-.527 1.179-1.178V3.75c0-.65-.528-1.178-1.179-1.178h-5.893zm.536 12.321v4.821h4.821v-4.821h-4.821zm-.536-1.715c-.65 0-1.178.528-1.178 1.179v5.893c0 .65.527 1.178 1.178 1.178h5.893c.651 0 1.179-.527 1.179-1.178v-5.893c0-.65-.528-1.178-1.179-1.178h-5.893z" fill="#93939F"/></svg>
